packages/create-stylable-app/template/ts-react-rollup/src/stylable.svg

<svg width="85" height="96" xmlns="http://www.w3.org/2000/svg">
  <defs>
    <linearGradient x1="66.5482535%" y1="-4.69211158%" x2="80.2718164%" y2="111.186421%" id="a">
      <stop stop-color="#7AD852" offset="0%"/>
      <stop stop-color="#3AB38B" offset="53.5842857%"/>
      <stop stop-color="#00BFC9" offset="100%"/>
    </linearGradient>
    <linearGradient x1="78.0937359%" y1=".73760406%" x2="20.393625%" y2="118.621864%" id="b">
      <stop stop-color="#FF2953" offset="0%"/>
      <stop stop-color="#EA3333" offset="100%"/>
    </linearGradient>
  </defs>
  <g fill="none" fill-rule="evenodd">
    <path d="M25.9459514 1.83180599C18.0674566 5.18385626.06082708 22.4410604 0 36.0399542c.10608222 14.0584249 18.0674566 30.8565398 25.9459514 34.20859 1.8065142.768077 4.6097108 1.8313641 7.5703014 1.8313641 2.6998793 0 4.9859701-1.3323011 7.3121485-4.1301693 3.9097909-4.7034768 3.4393266-11.4664028-1.7713832-15.3045777-6.2355297-4.5903423-11.338845-8.7105432-11.4452399-16.6052071.1063949-7.8942221 5.2097102-13.4042761 11.4452399-17.9950603 5.2107098-3.837733 6.225538-9.65924406 2.3157471-14.36272081C39.0470265.88430489 36.2156924 0 33.5162528 0c-2.9610302 0-5.7637872 1.06328714-7.5703014 1.83180599Z" fill="url(#a)"/>
    <path d="M40.6969697 68.1290323c3.4580027-3.9332426 3.887312-11.7358889-1.5404165-15.483871-7.6080248-5.2535311-11.4916769-10.2618177-11.4461246-16.6799992.0516554-7.2780999 4.6833695-11.8354124 5.8377049-13.2554847-17.2757073 19.3954818-19.66858 41.3097495-2.9434847 49.0298251 3.8267556 1.330527 7.1044672-.2119903 10.0923209-3.6104702Z" fill="#005892"/>
    <path d="M32.6187986 61.1659305c2.2198441-2.7280651 2.008428-7.9002579-.9888612-10.739487-4.7659739-4.5146435-5.6169142-9.4261099-5.5876722-13.8777083.0331599-5.048031 3.006461-8.2089459 3.7474797-9.1938965-11.0900369 13.4525485-14.386226 30.9607029-3.6496513 36.3152846 2.4565629.9228427 4.5606702-.1470347 6.478705-2.5041928Z" fill="#00418E"/>
    <path d="M27.9147528 55.8977447c1.4165592-1.7408725 1.2816473-5.0414273-.6310264-6.8532374-3.0413325-2.8809498-3.5843469-6.015126-3.5656865-8.8558447.0211604-3.2213228 1.0424215-6.0017134-.6363028-2.2806399-1.6787243 3.7210734-6.1526484 16.1707905.6987305 19.5877339 1.5676175.5888977 2.910321-.093828 4.1342852-1.5980119Z" fill="#002355"/>
    <path d="M10.2201858 72.217956c-2.68661753 0-5.50450299-.8838128-7.81919462-3.6801241-3.89121979-4.7008596-2.87448283-10.5183396 2.31147657-14.3539371C10.9183792 49.5956651 15.9907251 44.0878855 16.0966146 36.1980561c-.1058895-7.890271-5.1846633-13.1303426-11.38414685-17.7418645C.1354802 15.0515727-1.49022861 8.55869822 2.40099118 3.8578387 4.71612037 1.06152735 7.53313071.17815621 10.2201858.17815621c2.946528 0 5.7364097 1.06269549 7.5343431 1.83034501C25.5956015 5.35868626 43.4366298 22.10568 43.5747924 36.1980561c-.0441854 13.2828065-17.9791909 30.8389282-25.8202635 34.1891132-1.7979334.7680912-4.5873775 1.8307867-7.5343431 1.8307867Z" fill="url(#b)" transform="translate(41.212121 23.741935)"/>
    <path d="M22.5574576 45.6907536c3.475639-3.9332425 2.886163-10.9922323-2.5692476-14.7402143-7.6468266-5.2535312-11.29253454-11.2768731-11.24674997-17.6950546C8.79337889 5.97738477 13.4487153 1.42007233 14.608938 0-3.43614578 13.2554847-5.15995421 41.3097495 11.6504411 49.0298251c3.8462726 1.3305269 7.9039244.0594085 10.9070165-3.3390715Z" fill="#470000" opacity=".60000002" style="mix-blend-mode:multiply" transform="rotate(-180 32.9696965 36.6451615)"/>
    <path d="M53.0031017 34.3179403c-2.2198441 2.728065-2.008428 7.9002579.9888612 10.739487 4.7659739 4.5146435 5.6169143 9.4261098 5.5876723 13.8777083-.0331599 5.048031-1.0431458 7.35170529-1.7841645 8.33665592 9.02623583-10.60832732 11.9766217-30.33502312 1.686336-35.45804402-2.4565629-.9228427-4.5606702.1470347-6.478705 2.5041928Z" fill="#670010"/>
    <path d="M23.8890459 33.9732608c1.4165591-1.7408725 1.2816472-5.0414273-.6310265-6.8532374-3.0413325-2.8809498-4.0595022-6.5378284-4.1735976-8.5652901-.1407262-2.5006865-.124156-2.8557106.3142424-4.6192494-1.3380859 2.4094053-7.1977211 19.0359527.3560964 21.6357888 1.5676176.5888978 2.9103211-.0938279 4.1342853-1.5980119Z" fill="#730000" style="mix-blend-mode:multiply" transform="rotate(-180 41.0101885 36.7295985)"/>
  </g>
</svg>

<?xml version="1.0" encoding="UTF-8"?>
<svg width="85px" height="96px" viewBox="0 0 85 96" version="1.1" xmlns="http://www.w3.org/2000/svg" xmlns:xlink="http://www.w3.org/1999/xlink">
    <!-- Generator: Sketch 46.2 (44496) - http://www.bohemiancoding.com/sketch -->
    <title>96-logo-OnlySymbol</title>
    <desc>Created with Sketch.</desc>
    <defs>
        <linearGradient x1="66.5482535%" y1="-4.69211158%" x2="80.2718164%" y2="111.186421%" id="linearGradient-1">
            <stop stop-color="#7AD852" offset="0%"></stop>
            <stop stop-color="#3AB38B" offset="53.5842857%"></stop>
            <stop stop-color="#00BFC9" offset="100%"></stop>
        </linearGradient>
        <linearGradient x1="78.0937359%" y1="0.737604065%" x2="20.393625%" y2="118.621864%" id="linearGradient-2">
            <stop stop-color="#FF2953" offset="0%"></stop>
            <stop stop-color="#EA3333" offset="100%"></stop>
        </linearGradient>
    </defs>
    <g id="Page-1" stroke="none" stroke-width="1" fill="none" fill-rule="evenodd">
        <g id="Logo-2" transform="translate(-605.000000, -13780.000000)">
            <g id="Group-4" transform="translate(80.000000, 13191.000000)">
                <g id="96-logo-OnlySymbol" transform="translate(525.000000, 589.000000)">
                    <g id="logo-st-copy-2">
                        <g id="Group">
                            <g id="Group-3-Copy">
                                <path d="M25.9459514,1.83180599 C18.0674566,5.18385626 0.0608270795,22.4410604 0,36.0399542 C0.106082221,50.0983791 18.0674566,66.896494 25.9459514,70.2485442 C27.7524656,71.0166212 30.5556622,72.0799083 33.5162528,72.0799083 C36.2161321,72.0799083 38.5022229,70.7476072 40.8284013,67.949739 C44.7381922,63.2462622 44.2677279,56.4833362 39.0570181,52.6451613 C32.8214884,48.054819 27.7181731,43.9346181 27.6117782,36.0399542 C27.7181731,28.1457321 32.8214884,22.6356781 39.0570181,18.0448939 C44.2677279,14.2071609 45.2825561,8.38564984 41.3727652,3.68217309 C39.0470265,0.884304892 36.2156924,0 33.5162528,0 C30.5552226,0 27.7524656,1.06328714 25.9459514,1.83180599 Z" id="Fill-1" fill="url(#linearGradient-1)"></path>
                                <path d="M40.6969697,68.1290323 C44.1549724,64.1957897 44.5842817,56.3931434 39.1565532,52.6451613 C31.5485284,47.3916302 27.6648763,42.3833436 27.7104286,35.9651621 C27.762084,28.6870622 32.3937981,24.1297497 33.5481335,22.7096774 C16.2724262,42.1051592 13.8795535,64.0194269 30.6046488,71.7395025 C34.4314044,73.0700295 37.709116,71.5275122 40.6969697,68.1290323 Z" id="Fill-9" fill="#005892"></path>
                                <path d="M32.6187986,61.1659305 C34.8386427,58.4378654 34.6272266,53.2656726 31.6299374,50.4264435 C26.8639635,45.9118 26.0130232,41.0003336 26.0422652,36.5487352 C26.0754251,31.5007042 29.0487262,28.3397893 29.7897449,27.3548387 C18.699708,40.8073872 15.4035189,58.3155416 26.1400936,63.6701233 C28.5966565,64.592966 30.7007638,63.5230886 32.6187986,61.1659305 Z" id="Fill-9" fill="#00418E"></path>
                                <path d="M27.9147528,55.8977447 C29.331312,54.1568722 29.1964001,50.8563174 27.2837264,49.0445073 C24.2423939,46.1635575 23.6993795,43.0293813 23.7180399,40.1886626 C23.7392003,36.9673398 24.7604614,34.1869492 23.0817371,37.9080227 C21.4030128,41.6290961 16.9290887,54.0788132 23.7804676,57.4957566 C25.3480851,58.0846543 26.6907886,57.4019286 27.9147528,55.8977447 Z" id="Fill-9" fill="#002355"></path>
                            </g>
                            <g id="Group-4-Copy" transform="translate(41.212121, 23.741935)">
                                <g id="Group-5">
                                    <path d="M10.2201858,72.217956 C7.53356827,72.217956 4.71568281,71.3341432 2.40099118,68.5378319 C-1.49022861,63.8369723 -0.473491646,58.0194923 4.71246775,54.1838948 C10.9183792,49.5956651 15.9907251,44.0878855 16.0966146,36.1980561 C15.9907251,28.3077851 10.9119513,23.0677135 4.71246775,18.4561916 C0.135480195,15.0515727 -1.49022861,8.55869822 2.40099118,3.8578387 C4.71612037,1.06152735 7.53313071,0.178156214 10.2201858,0.178156214 C13.1667138,0.178156214 15.9565955,1.2408517 17.7545289,2.00850122 C25.5956015,5.35868626 43.4366298,22.10568 43.5747924,36.1980561 C43.530607,49.4808626 25.5956015,67.0369843 17.7545289,70.3871693 C15.9565955,71.1552605 13.1671514,72.217956 10.2201858,72.217956 Z" id="Fill-1-Copy-6" fill="url(#linearGradient-2)"></path>
                                    <path d="M22.5574576,45.6907536 C26.0330966,41.7575111 25.4436206,34.6985213 19.98821,30.9505393 C12.3413834,25.6970081 8.69567546,19.6736662 8.74146003,13.2554847 C8.79337889,5.97738477 13.4487153,1.42007233 14.608938,-7.10542736e-15 C-3.43614578,13.2554847 -5.15995421,41.3097495 11.6504411,49.0298251 C15.4967137,50.360352 19.5543655,49.0892336 22.5574576,45.6907536 Z" id="Fill-9" fill="#470000" opacity="0.600000024" style="mix-blend-mode: multiply;" transform="translate(12.363636, 24.774194) rotate(-180.000000) translate(-12.363636, -24.774194) "></path>
                                    <path d="M23.2851073,40.6957867 C25.5049514,37.9677217 25.2935353,32.7955288 22.2962461,29.9562997 C17.5302722,25.4416562 16.6793318,20.5301899 16.7085738,16.0785914 C16.7417337,11.0305604 17.7517196,8.72688611 18.4927383,7.74193548 C9.46650247,18.3502628 6.5161166,38.0769586 16.8064023,43.1999795 C19.2629652,44.1228222 21.3670725,43.0529448 23.2851073,40.6957867 Z" id="Fill-9-Copy" fill="#670010" transform="translate(17.538044, 25.635896) rotate(-180.000000) translate(-17.538044, -25.635896) "></path>
                                    <path d="M23.8890459,33.9732608 C25.305605,32.2323883 25.1706931,28.9318335 23.2580194,27.1200234 C20.2166869,24.2390736 19.1985172,20.582195 19.0844218,18.5547333 C18.9436956,16.0540468 18.9602658,15.6990227 19.3986642,13.9354839 C18.0605783,16.3448892 12.2009431,32.9714366 19.7547606,35.5712727 C21.3223782,36.1601705 22.6650817,35.4774448 23.8890459,33.9732608 Z" id="Fill-9-Copy-2" fill="#730000" style="mix-blend-mode: multiply;" transform="translate(20.404128, 24.858631) rotate(-180.000000) translate(-20.404128, -24.858631) "></path>
                                </g>
                            </g>
                        </g>
                    </g>
                </g>
            </g>
        </g>
    </g>
</svg>
